Desktop/project_createx/public/images/Services/cart.svg

<svg width="48" height="48" viewBox="0 0 48 48" fill="none" xmlns="http://www.w3.org/2000/svg">
<g clip-path="url(#clip0_16317_414)">
<path d="M33.3562 37.7747C33.1818 37.6003 32.9399 37.5 32.6924 37.5C32.4459 37.5 32.204 37.6002 32.0305 37.7747C31.8552 37.9491 31.7559 38.19 31.7559 38.4375C31.7559 38.6841 31.8552 38.9259 32.0305 39.1002C32.2049 39.2746 32.4459 39.375 32.6924 39.375C32.9399 39.375 33.1809 39.2747 33.3562 39.1002C33.5305 38.9259 33.6309 38.6841 33.6309 38.4375C33.6309 38.1909 33.5305 37.9491 33.3562 37.7747Z" fill="#7772F1"/>
<path d="M47.8134 19.1261C47.6364 18.8894 47.3581 18.75 47.0625 18.75H43.239V0.9375C43.239 0.419813 42.8192 0 42.3015 0H25.0515C24.5337 0 24.114 0.419813 24.114 0.9375V8.15625H14.4458C13.928 8.15625 13.5083 8.57606 13.5083 9.09375V18.75H10.0313C9.7357 18.75 9.45745 18.8894 9.28045 19.1261C9.10345 19.3628 9.04842 19.6692 9.13205 19.9527L14.6621 38.7027C14.7796 39.1013 15.1456 39.375 15.5612 39.375H28.5469C29.0647 39.375 29.4844 38.9552 29.4844 38.4375C29.4844 37.9198 29.0647 37.5 28.5469 37.5H16.2623L11.2853 20.625H14.4459H31.32H42.3015H45.8086L40.8316 37.5H37.4063C36.8885 37.5 36.4688 37.9198 36.4688 38.4375C36.4688 38.9552 36.8885 39.375 37.4063 39.375H41.5325C41.9481 39.375 42.3141 39.1013 42.4317 38.7027L47.9617 19.9527C48.0453 19.6692 47.9904 19.3628 47.8134 19.1261ZM30.3825 18.75H15.3833V10.0312H25.0515H30.3825V18.75ZM41.364 18.75H32.2575V9.09375C32.2575 8.57606 31.8378 8.15625 31.32 8.15625H25.989V1.875H41.364V18.75Z" fill="#7772F1"/>
<path d="M42.572 41.0623H13.6455L5.87625 14.7201C5.75869 14.3215 5.39269 14.0479 4.97709 14.0479H0.9375C0.419719 14.0479 0 14.4677 0 14.9854C0 15.503 0.419719 15.9229 0.9375 15.9229H4.27612L12.0455 42.265C12.163 42.6636 12.529 42.9373 12.9446 42.9373H17.5961C17.348 43.4149 17.2068 43.9566 17.2068 44.531C17.2068 46.4437 18.7628 47.9998 20.6755 47.9998C22.5882 47.9998 24.1443 46.4437 24.1443 44.531C24.1443 43.9566 24.0031 43.4149 23.7549 42.9373H31.4289C31.1808 43.4149 31.0396 43.9566 31.0396 44.531C31.0396 46.4437 32.5957 47.9998 34.5083 47.9998C36.421 47.9998 37.9771 46.4437 37.9771 44.531C37.9771 43.9566 37.8359 43.4149 37.5877 42.9373H42.5721C43.0898 42.9373 43.5096 42.5175 43.5096 41.9998C43.5096 41.4821 43.0897 41.0623 42.572 41.0623ZM20.6755 46.1248C19.7967 46.1248 19.0818 45.4099 19.0818 44.531C19.0818 43.6522 19.7967 42.9373 20.6755 42.9373C21.5543 42.9373 22.2693 43.6522 22.2693 44.531C22.2693 45.4099 21.5543 46.1248 20.6755 46.1248ZM34.5082 46.1248C33.6294 46.1248 32.9145 45.4099 32.9145 44.531C32.9145 43.6522 33.6294 42.9373 34.5082 42.9373C35.3871 42.9373 36.102 43.6522 36.102 44.531C36.102 45.4099 35.3871 46.1248 34.5082 46.1248Z" fill="#7772F1"/>
<path d="M23.5456 23.6184C23.3713 23.444 23.1294 23.3438 22.8819 23.3438C22.6353 23.3438 22.3934 23.4441 22.2191 23.6184C22.0447 23.7928 21.9453 24.0347 21.9453 24.2812C21.9453 24.5278 22.0447 24.7697 22.2191 24.944C22.3944 25.1184 22.6353 25.2188 22.8819 25.2188C23.1294 25.2188 23.3703 25.1184 23.5456 24.944C23.72 24.7697 23.8194 24.5278 23.8194 24.2812C23.8194 24.0347 23.72 23.7928 23.5456 23.6184Z" fill="#7772F1"/>
<path d="M18.9396 23.3438H12.1328C11.615 23.3438 11.1953 23.7636 11.1953 24.2812C11.1953 24.7989 11.615 25.2188 12.1328 25.2188H18.9396C19.4574 25.2188 19.8771 24.7989 19.8771 24.2812C19.8771 23.7636 19.4574 23.3438 18.9396 23.3438Z" fill="#7772F1"/>
</g>
<defs>
<clipPath id="clip0_16317_414">
<rect width="48" height="48" fill="white"/>
</clipPath>
</defs>
</svg>

<svg xmlns="http://www.w3.org/2000/svg" width="48" height="48" fill="none"><g fill="#7772F1" clip-path="url(#a)"><path d="M33.356 37.775a.94.94 0 0 0-1.6.663.94.94 0 0 0 .936.937c.248 0 .489-.1.664-.275a.94.94 0 0 0 .275-.663c0-.246-.1-.488-.275-.662"/><path d="M47.813 19.126a.94.94 0 0 0-.75-.376h-3.824V.938A.94.94 0 0 0 42.302 0h-17.25a.94.94 0 0 0-.938.938v7.218h-9.668a.94.94 0 0 0-.938.938v9.656h-3.477a.938.938 0 0 0-.899 1.203l5.53 18.75a.94.94 0 0 0 .9.672h12.985a.938.938 0 0 0 0-1.875H16.262l-4.977-16.875H45.81L40.832 37.5h-3.426a.938.938 0 0 0 0 1.875h4.127a.94.94 0 0 0 .899-.672l5.53-18.75a.94.94 0 0 0-.149-.827m-17.43-.376h-15v-8.719h14.999zm10.981 0h-9.106V9.094a.94.94 0 0 0-.938-.938h-5.331V1.875h15.375z"/><path d="M42.572 41.062H13.645L5.876 14.72a.94.94 0 0 0-.899-.672H.937a.938.938 0 0 0 0 1.875h3.34l7.769 26.342a.94.94 0 0 0 .899.672h4.651a3.45 3.45 0 0 0-.39 1.594A3.473 3.473 0 0 0 20.677 48a3.473 3.473 0 0 0 3.468-3.469c0-.574-.14-1.116-.39-1.594h7.675a3.45 3.45 0 0 0-.39 1.594A3.473 3.473 0 0 0 34.51 48a3.473 3.473 0 0 0 3.468-3.469c0-.574-.141-1.116-.39-1.594h4.985a.938.938 0 0 0 0-1.875m-21.897 5.063a1.595 1.595 0 0 1-1.593-1.594c0-.879.715-1.594 1.593-1.594.88 0 1.594.715 1.594 1.594s-.715 1.594-1.593 1.594m13.833 0a1.595 1.595 0 0 1-1.594-1.594c0-.879.715-1.594 1.594-1.594s1.594.715 1.594 1.594-.715 1.594-1.594 1.594M23.546 23.618a.95.95 0 0 0-.664-.274c-.247 0-.489.1-.663.274a.943.943 0 0 0 0 1.326.95.95 0 0 0 .663.275c.247 0 .488-.1.664-.275a.943.943 0 0 0 0-1.326"/><path d="M18.94 23.344h-6.807a.938.938 0 0 0 0 1.875h6.807a.938.938 0 0 0 0-1.875"/></g><defs><clipPath id="a"><path fill="#fff" d="M0 0h48v48H0z"/></clipPath></defs></svg>
